src/assets/images/reactions/men/big/angry.svg

<svg width="24" height="24" viewBox="0 0 24 24" fill="none" xmlns="http://www.w3.org/2000/svg">
<path d="M11.9996 22.4C17.588 22.4 22.1183 17.7437 22.1183 12C22.1183 6.25621 17.588 1.59998 11.9996 1.59998C6.41117 1.59998 1.88086 6.25621 1.88086 12C1.88086 17.7437 6.41117 22.4 11.9996 22.4Z" fill="url(#paint0_linear_860_5076)"/>
<path d="M11.9996 22.4C17.588 22.4 22.1183 17.7437 22.1183 12C22.1183 6.25621 17.588 1.59998 11.9996 1.59998C6.41117 1.59998 1.88086 6.25621 1.88086 12C1.88086 17.7437 6.41117 22.4 11.9996 22.4Z" fill="url(#paint1_linear_860_5076)"/>
<path d="M8.28799 13.277C8.82674 13.277 9.26348 12.451 9.26348 11.4321C9.26348 10.4132 8.82674 9.58716 8.28799 9.58716C7.74924 9.58716 7.3125 10.4132 7.3125 11.4321C7.3125 12.451 7.74924 13.277 8.28799 13.277Z" fill="#303030"/>
<path d="M7.08008 8.80005L9.56121 10.768" stroke="#303030" stroke-miterlimit="10" stroke-linecap="round" stroke-linejoin="round"/>
<path d="M16.9197 11.4321C16.9197 12.4407 16.4956 13.277 15.9442 13.277C15.4141 13.277 14.9688 12.4407 14.9688 11.4321C14.9688 10.4235 15.3929 9.58716 15.9442 9.58716C16.4956 9.58716 16.9197 10.4235 16.9197 11.4321Z" fill="#303030"/>
<path d="M16.8991 8.80005L14.418 10.768" stroke="#303030" stroke-miterlimit="10" stroke-linecap="round" stroke-linejoin="round"/>
<path d="M8.80078 16C8.80078 16 11.4827 14.2 15.2008 16" stroke="#5B0600" stroke-miterlimit="10" stroke-linecap="round" stroke-linejoin="round"/>
<defs>
<linearGradient id="paint0_linear_860_5076" x1="3.22379" y1="17.205" x2="20.9986" y2="7.22032" gradientUnits="userSpaceOnUse">
<stop stop-color="#EBB34D"/>
<stop offset="0.033108" stop-color="#ECB64D"/>
<stop offset="0.1781" stop-color="#EEC04F"/>
<stop offset="0.5514" stop-color="#F1CC51"/>
<stop offset="1" stop-color="#F3D652"/>
</linearGradient>
<linearGradient id="paint1_linear_860_5076" x1="11.9981" y1="1.6031" x2="11.9981" y2="22.4133" gradientUnits="userSpaceOnUse">
<stop stop-color="#DD5F70"/>
<stop offset="0.1619" stop-color="#DD636F" stop-opacity="0.9684"/>
<stop offset="0.6863" stop-color="#EBAA5D" stop-opacity="0.3625"/>
<stop offset="1" stop-color="#F3D652" stop-opacity="0"/>
</linearGradient>
</defs>
</svg>

<svg xmlns="http://www.w3.org/2000/svg" width="24" height="24" fill="none">
  <path fill="url(#a)" d="M12 22.4c5.588 0 10.118-4.656 10.118-10.4 0-5.744-4.53-10.4-10.118-10.4C6.41 1.6 1.88 6.256 1.88 12c0 5.744 4.531 10.4 10.12 10.4Z"/>
  <path fill="url(#b)" d="M12 22.4c5.588 0 10.118-4.656 10.118-10.4 0-5.744-4.53-10.4-10.118-10.4C6.41 1.6 1.88 6.256 1.88 12c0 5.744 4.531 10.4 10.12 10.4Z"/>
  <path fill="#303030" d="M8.288 13.277c.539 0 .975-.826.975-1.845 0-1.019-.436-1.845-.975-1.845-.539 0-.976.826-.976 1.845 0 1.019.437 1.845.976 1.845Z"/>
  <path stroke="#303030" stroke-linecap="round" stroke-linejoin="round" stroke-miterlimit="10" d="m7.08 8.8 2.481 1.968"/>
  <path fill="#303030" d="M16.92 11.432c0 1.009-.424 1.845-.976 1.845-.53 0-.975-.836-.975-1.845 0-1.008.424-1.845.975-1.845.552 0 .976.837.976 1.845Z"/>
  <path stroke="#303030" stroke-linecap="round" stroke-linejoin="round" stroke-miterlimit="10" d="m16.9 8.8-2.482 1.968"/>
  <path stroke="#5B0600" stroke-linecap="round" stroke-linejoin="round" stroke-miterlimit="10" d="M8.8 16s2.683-1.8 6.4 0"/>
  <defs>
    <linearGradient id="a" x1="3.224" x2="20.999" y1="17.205" y2="7.22" gradientUnits="userSpaceOnUse">
      <stop stop-color="#EBB34D"/>
      <stop offset=".033" stop-color="#ECB64D"/>
      <stop offset=".178" stop-color="#EEC04F"/>
      <stop offset=".551" stop-color="#F1CC51"/>
      <stop offset="1" stop-color="#F3D652"/>
    </linearGradient>
    <linearGradient id="b" x1="11.998" x2="11.998" y1="1.603" y2="22.413" gradientUnits="userSpaceOnUse">
      <stop stop-color="#DD5F70"/>
      <stop offset=".162" stop-color="#DD636F" stop-opacity=".968"/>
      <stop offset=".686" stop-color="#EBAA5D" stop-opacity=".362"/>
      <stop offset="1" stop-color="#F3D652" stop-opacity="0"/>
    </linearGradient>
  </defs>
</svg>
